X:599
T:The Bouchaleen bawn
R:Jig
O:Ireland
B:Roche 1 n120
S:My arrangement from Roche- mdl
Z:Transcription, arrangement, chords:Mike Long
M:6/8
L:1/8
K:C
G|\
"Am"EAA AGE|"Am"GAB "C"c2d|"Em"ege dcB|"G"ABA GED|\
"Am"EAA AGE|"Am"GAB "C"c2d|"Em"ege "G"dcB|"Am"ABA A2:|
|:e|\
"Am"eaa aga|"G"bab ged|"Em"eaa e2e|"G"BAB GED|\
"Am"EAA AGE|"Am"GAB "C"c2d|"Em"ege "G"dcB|"Am"ABA A2:|
